X:10
T:The Reel Of Rio
C:Sean Ryan
R:reel
M:C|
L:1/8
D:&quot;Open Hearth&quot; Andrew &amp; Mary MacNamara
N:Cut 6.2 on cd, incorrectly called &quot;Reel of Bogie&quot;
N:Originally in G Major
Z:Geoff Wright
K:G %Transposed from F
|:DEGA BBBd|eggg ageg|gede gedd|eedB AGEG|
DEGA BBBd|eggg ageg|gede gedB|ABBA G4:|
|:eggg aggg|aggg edBA|Bddd eddd|eedB AGEG|
DEGA BBBd|eggg ageg|gede gedB|ABBA G4:|
